src/assets/svg-icons/blockchain.svg

<svg width="37" height="37" viewBox="0 0 37 37" fill="none" xmlns="http://www.w3.org/2000/svg">
<g clip-path="url(#clip0_1002_13174)">
<path d="M35.9429 8.96259C35.9429 7.2889 34.5815 5.92742 32.9078 5.92742C32.0485 5.92742 31.2719 6.28706 30.7192 6.86293L18.8746 0.0244887C18.6511 -0.104517 18.3758 -0.104517 18.1523 0.0244887L6.30745 6.86293C5.75473 6.28706 4.97844 5.92742 4.11915 5.92742C2.44546 5.92742 1.08398 7.2889 1.08398 8.96259C1.08398 10.387 2.07058 11.5848 3.39649 11.91V25.582C3.39649 25.8401 3.53425 26.0786 3.75782 26.2079L15.5987 33.0443C15.5202 33.3136 15.4773 33.5982 15.4773 33.8926C15.4773 35.566 16.8388 36.9278 18.5125 36.9278C20.1859 36.9278 21.5474 35.566 21.5474 33.8926C21.5474 33.5985 21.5047 33.3145 21.4263 33.0452L33.2691 26.2079C33.4927 26.0789 33.6304 25.8401 33.6304 25.582V11.91C34.9563 11.5848 35.9429 10.387 35.9429 8.96259ZM2.5293 8.96259C2.5293 8.0858 3.24236 7.37274 4.11915 7.37274C4.99566 7.37274 5.70872 8.0858 5.70872 8.96259C5.70872 9.83909 4.99566 10.5524 4.11915 10.5524C3.24236 10.5524 2.5293 9.83909 2.5293 8.96259ZM18.5125 35.4825C17.6357 35.4825 16.9226 34.7694 16.9226 33.8926C16.9226 33.0161 17.6357 32.3028 18.5125 32.3028C19.389 32.3028 20.1023 33.0161 20.1023 33.8926C20.1023 34.7694 19.389 35.4825 18.5125 35.4825ZM20.7025 31.7944C20.1495 31.2176 19.3726 30.8574 18.5125 30.8574C17.6529 30.8574 16.876 31.2174 16.3233 31.7935L4.84181 25.1648V11.91C6.16743 11.5848 7.15403 10.387 7.15403 8.96259C7.15403 8.66788 7.11112 8.38305 7.03237 8.11318L18.5133 1.48477L29.9946 8.11318C29.9158 8.38305 29.8729 8.6676 29.8729 8.96259C29.8729 10.387 30.8595 11.5848 32.1851 11.91V25.1648L20.7025 31.7944ZM32.9078 10.5524C32.0313 10.5524 31.3179 9.83909 31.3179 8.96259C31.3179 8.0858 32.0313 7.37274 32.9078 7.37274C33.7846 7.37274 34.4976 8.0858 34.4976 8.96259C34.4976 9.83909 33.7846 10.5524 32.9078 10.5524Z" fill="black"/>
<path d="M28.4138 11.1381L18.8747 5.63093C18.6512 5.50193 18.3759 5.50193 18.1524 5.63093L8.61328 11.1381C8.38971 11.2674 8.25195 11.5059 8.25195 11.7639V22.7785C8.25195 23.0366 8.38971 23.2754 8.61328 23.4044L18.1524 28.9118C18.2642 28.9762 18.3886 29.0086 18.5134 29.0086C18.6385 29.0086 18.763 28.9762 18.8747 28.9118L28.4138 23.4044C28.6374 23.2754 28.7752 23.0366 28.7752 22.7785V11.7639C28.7752 11.5059 28.6374 11.2674 28.4138 11.1381ZM18.5134 7.09121L26.6072 11.7639L18.5134 16.4369L10.4199 11.7639L18.5134 7.09121ZM19.2361 27.0343V23.7753C19.2361 23.3761 18.9126 23.0526 18.5134 23.0526C18.1145 23.0526 17.791 23.3761 17.791 23.7753V27.0343L9.69727 22.3613V13.0156L18.1524 17.8972C18.2642 17.9616 18.3886 17.994 18.5134 17.994C18.6385 17.994 18.763 17.9616 18.8747 17.8972L27.3299 13.0156V22.3613L19.2361 27.0343Z" fill="black"/>
<path d="M18.5126 19.8008C18.3217 19.8008 18.136 19.8778 18.0008 20.0125C17.8664 20.1469 17.7891 20.3332 17.7891 20.5234C17.7891 20.7134 17.8664 20.8997 18.0008 21.0341C18.136 21.1688 18.3217 21.2461 18.5126 21.2461C18.7025 21.2461 18.8891 21.1688 19.0235 21.0341C19.1579 20.8997 19.2352 20.7134 19.2352 20.5234C19.2352 20.3332 19.1579 20.1469 19.0235 20.0125C18.8891 19.8778 18.7025 19.8008 18.5126 19.8008Z" fill="black"/>
</g>
<defs>
<clipPath id="clip0_1002_13174">
<rect width="37" height="37" fill="white"/>
</clipPath>
</defs>
</svg>

<svg xmlns="http://www.w3.org/2000/svg" width="37" height="37" fill="none" viewBox="0 0 37 37"><g fill="#000" clip-path="url(#a)"><path d="M35.943 8.963a3.038 3.038 0 0 0-3.035-3.036c-.86 0-1.636.36-2.189.936L18.875.024a.722.722 0 0 0-.723 0L6.307 6.863a3.025 3.025 0 0 0-2.188-.936 3.038 3.038 0 0 0-3.035 3.036 3.04 3.04 0 0 0 2.312 2.947v13.672c0 .258.138.497.362.626l11.84 6.836a3.039 3.039 0 0 0 2.914 3.883 3.039 3.039 0 0 0 2.914-3.882l11.843-6.837a.723.723 0 0 0 .361-.626V11.91a3.04 3.04 0 0 0 2.313-2.947Zm-33.414 0c0-.877.713-1.59 1.59-1.59.877 0 1.59.713 1.59 1.59 0 .876-.713 1.59-1.59 1.59-.877 0-1.59-.714-1.59-1.59Zm15.983 26.52c-.876 0-1.59-.714-1.59-1.59 0-.877.714-1.59 1.59-1.59.877 0 1.59.713 1.59 1.59 0 .876-.713 1.59-1.59 1.59Zm2.19-3.689a3.026 3.026 0 0 0-4.379 0l-11.481-6.63V11.91a3.04 3.04 0 0 0 2.19-3.797l11.481-6.628 11.482 6.628a3.04 3.04 0 0 0 2.19 3.797v13.255l-11.483 6.63Zm12.206-21.242c-.877 0-1.59-.713-1.59-1.59 0-.876.713-1.59 1.59-1.59.877 0 1.59.714 1.59 1.59 0 .877-.713 1.59-1.59 1.59Z"/><path d="m28.414 11.138-9.54-5.507a.722.722 0 0 0-.722 0l-9.539 5.507a.723.723 0 0 0-.361.626v11.015c0 .258.138.496.361.625l9.54 5.508a.722.722 0 0 0 .722 0l9.539-5.508a.723.723 0 0 0 .361-.625V11.764a.723.723 0 0 0-.361-.626Zm-9.9-4.047 8.093 4.673-8.094 4.673-8.093-4.673 8.093-4.673Zm.722 19.943v-3.259a.723.723 0 1 0-1.445 0v3.26L9.697 22.36v-9.345l8.455 4.881a.722.722 0 0 0 .723 0l8.455-4.881v9.345l-8.094 4.673Z"/><path d="M18.513 19.8a.729.729 0 0 0-.512.212.728.728 0 0 0-.212.511c0 .19.077.377.212.511a.73.73 0 0 0 .512.212.727.727 0 0 0 .722-.723.727.727 0 0 0-.723-.723Z"/></g><defs><clipPath id="a"><path fill="#fff" d="M0 0h37v37H0z"/></clipPath></defs></svg>
